src/helpers/heroicons/solid/clipboard-document-list.svg

<svg width="24" height="24" viewBox="0 0 24 24" fill="none" xmlns="http://www.w3.org/2000/svg">
<path fill-rule="evenodd" clip-rule="evenodd" d="M7.50183 6H11.2477L11.25 6H14.6299C16.4915 6.00268 17.9999 7.51269 17.9999 9.375V18.75C19.6567 18.75 20.9999 17.4068 20.9999 15.75V6.10821C20.9999 4.60282 19.8751 3.2966 18.3358 3.16884C18.1121 3.15027 17.8879 3.13321 17.6632 3.11767C17.1633 2.15647 16.1583 1.5 15 1.5H13.5C12.3417 1.5 11.3367 2.15647 10.8368 3.11765C10.6121 3.13319 10.3878 3.15026 10.1639 3.16884C8.66165 3.29353 7.55421 4.54069 7.50183 6ZM13.5 3C12.6716 3 12 3.67157 12 4.5H16.5C16.5 3.67157 15.8284 3 15 3H13.5Z" />
<path fill-rule="evenodd" clip-rule="evenodd" d="M3 9.375C3 8.33947 3.83947 7.5 4.875 7.5H14.625C15.6605 7.5 16.5 8.33947 16.5 9.375V20.625C16.5 21.6605 15.6605 22.5 14.625 22.5H4.875C3.83947 22.5 3 21.6605 3 20.625V9.375ZM6 12C6 11.5858 6.33579 11.25 6.75 11.25H6.7575C7.17171 11.25 7.5075 11.5858 7.5075 12V12.0075C7.5075 12.4217 7.17171 12.7575 6.7575 12.7575H6.75C6.33579 12.7575 6 12.4217 6 12.0075V12ZM8.25 12C8.25 11.5858 8.58579 11.25 9 11.25H12.75C13.1642 11.25 13.5 11.5858 13.5 12C13.5 12.4142 13.1642 12.75 12.75 12.75H9C8.58579 12.75 8.25 12.4142 8.25 12ZM6 15C6 14.5858 6.33579 14.25 6.75 14.25H6.7575C7.17171 14.25 7.5075 14.5858 7.5075 15V15.0075C7.5075 15.4217 7.17171 15.7575 6.7575 15.7575H6.75C6.33579 15.7575 6 15.4217 6 15.0075V15ZM8.25 15C8.25 14.5858 8.58579 14.25 9 14.25H12.75C13.1642 14.25 13.5 14.5858 13.5 15C13.5 15.4142 13.1642 15.75 12.75 15.75H9C8.58579 15.75 8.25 15.4142 8.25 15ZM6 18C6 17.5858 6.33579 17.25 6.75 17.25H6.7575C7.17171 17.25 7.5075 17.5858 7.5075 18V18.0075C7.5075 18.4217 7.17171 18.7575 6.7575 18.7575H6.75C6.33579 18.7575 6 18.4217 6 18.0075V18ZM8.25 18C8.25 17.5858 8.58579 17.25 9 17.25H12.75C13.1642 17.25 13.5 17.5858 13.5 18C13.5 18.4142 13.1642 18.75 12.75 18.75H9C8.58579 18.75 8.25 18.4142 8.25 18Z" />
</svg>

<svg xmlns="http://www.w3.org/2000/svg" viewBox="0 0 24 24" fill="currentColor" aria-hidden="true" data-slot="icon">
  <path fill-rule="evenodd" d="M7.502 6h7.128A3.375 3.375 0 0 1 18 9.375v9.375a3 3 0 0 0 3-3V6.108c0-1.505-1.125-2.811-2.664-2.94a48.972 48.972 0 0 0-.673-.05A3 3 0 0 0 15 1.5h-1.5a3 3 0 0 0-2.663 1.618c-.225.015-.45.032-.673.05C8.662 3.295 7.554 4.542 7.502 6ZM13.5 3A1.5 1.5 0 0 0 12 4.5h4.5A1.5 1.5 0 0 0 15 3h-1.5Z" clip-rule="evenodd"/>
  <path fill-rule="evenodd" d="M3 9.375C3 8.339 3.84 7.5 4.875 7.5h9.75c1.036 0 1.875.84 1.875 1.875v11.25c0 1.035-.84 1.875-1.875 1.875h-9.75A1.875 1.875 0 0 1 3 20.625V9.375ZM6 12a.75.75 0 0 1 .75-.75h.008a.75.75 0 0 1 .75.75v.008a.75.75 0 0 1-.75.75H6.75a.75.75 0 0 1-.75-.75V12Zm2.25 0a.75.75 0 0 1 .75-.75h3.75a.75.75 0 0 1 0 1.5H9a.75.75 0 0 1-.75-.75ZM6 15a.75.75 0 0 1 .75-.75h.008a.75.75 0 0 1 .75.75v.008a.75.75 0 0 1-.75.75H6.75a.75.75 0 0 1-.75-.75V15Zm2.25 0a.75.75 0 0 1 .75-.75h3.75a.75.75 0 0 1 0 1.5H9a.75.75 0 0 1-.75-.75ZM6 18a.75.75 0 0 1 .75-.75h.008a.75.75 0 0 1 .75.75v.008a.75.75 0 0 1-.75.75H6.75a.75.75 0 0 1-.75-.75V18Zm2.25 0a.75.75 0 0 1 .75-.75h3.75a.75.75 0 0 1 0 1.5H9a.75.75 0 0 1-.75-.75Z" clip-rule="evenodd"/>
</svg>
